X:12399
T:Olive Branch Hornpipe
M:4/4
L:1/8
K:A
z|A2 cA eAfA|eAfA ecBc|A2 cA eAfA|ecBc AFEF|!
A2 cA eAfA|eAfA ecBc|ABAF EAcf|ecBc A3:|!
|:z|A2 ce a2 af|efed cdBc|A2 ce a2 ag|fbba gbeg|!
agae faec|dBcA BAEF|ABAF EAcf|ecBc A3:|!
